X:174
T: Lebenseile (3-12), S. 33f
N: K1149
O: Luxemburg
S: KINTZELE, Guillaume: An der Ucht, Bd. 3 Luxemburg 1928]
N: in der Quelle mit einer 2. Stimme versehen
R: melancholisch, betrachtendes Lied]
M: 6/8
L: 1/16
K: G
D2 | D2G2G2G2A2B2 | B3AA2A2B2c2 | B6z4
D2 | D2G2G2G2A2B2 | B3AA2A2B2c2 | B6z4
GB | d3dd2d3ed2 | d3cc2c2z2
d2 | B4B2d2c2B2 | B3AA2A4
d2 | B3cB2A2G2A2 | G6
A6 | B3cB2A2G2A2 | G6z4

@@@ Tune index: 8228
